Origami/16x16/apps/evelauncher.svg

<svg width="16" height="16" version="1" xmlns="http://www.w3.org/2000/svg">
 <rect transform="matrix(0,-1,-1,0,0,0)" x="-16" y="-16" width="16" height="16" rx=".8" ry=".8" style="fill:#4f4f4f"/>
 <path d="m3 3v3h3v-1h7v-2zm0 4v2h10v-2zm0 3v3h10v-2h-7v-1z" style="fill:#ffffff"/>
</svg>

<svg xmlns="http://www.w3.org/2000/svg" width="16" height="16" version="1">
 <rect style="fill:#4f4f4f" width="16" height="16" x="-16" y="-16" rx=".8" ry=".8" transform="matrix(0,-1,-1,0,0,0)"/>
 <path style="fill:#ffffff" d="M 3,3 V 5 6 H 6 V 5 h 7 V 3 Z M 3,7 V 9 H 13 V 7 Z m 0,3 v 1 2 H 13 V 11 H 6 v -1 z"/>
</svg>
